X: 40621
T: Tony
R: reel
M: 4/4
K: Emajor
|:fgfe c3 e|f2 ff z e ce|f3 g fecB|Bc z e ecec|
e f2 g c3 B|cB G3 e ec|e f2 c f2 ef|gg g f2 e ce|
fgfe c3 e|fffg fece|f2 ff fecB|cc z e ecec|
f3 g c3 B|cB G3 G GF|Geec effe|1 c2 (3 ggg gg z f:|2 c4 z2 BA]
|:EAAE A2 EA|c2 AcEA c/d/e|aaea c'2 z2|
z2 c'b fgfe|cefb g3 b|bc'c'c' c'b g2|
[1 cefb gfgb|b c'4 z BA:|2 cefb gfed|c8||

